X:1
T:Psalm 10
T:V 6
L:1/4
M:20/4
I:linebreak $
K:C
V:1 treble nm="Pipe Organ" snm="Org."
V:1
 A2 _B2 G2 F2 F2 E D F2 G2 A3 z |$[M:16/4] A2 A B c B A G F2 E2 D3 z |$ %2
w: Net soos 'n leeu wat loer, lê hy ge- reed.|Hy vang sy prooi deur aan sy net te trek|
[M:20/4] d2 c B A G A B c2 B2 A3 z |$[M:20/4] A2 c d c B A G F2 E2 D4 |] %4
w: en sleep hom weg, diep in sy weg- kruip- plek;|die ar- me slag hy daar- wie sal dit weet?|

